!!!COM: Anon.
!!!OTL: Pum ... pum ... pum
!!!OTL: Romanceiro Folclorico do Brasil
!!!CNT: Brasil
!!!OCY: Brasil
!!!ODT: <1971///
!!!PSR: Irmaos Vitale
!!!PSP: Sao Paulo, Brasil
!!!PDT: 1952///
!!!PPE: Rossini Tavares de Lima
!!!PPG: page 57
!! Romance: Cego Ou Ceguinho
!! Place: Bairro de Pinheiros, Capital, Sao Paulo, Brasil
**kern
*clefG2
*k[]
*M2/4
*MM100
=1-
4c
4e
=
4.g
8g
=
8a
8g
8f
8a
=
4.g
8g
=
8a
8g
8f
8a
=
4g
8e
8e
=
8g
8f
8e
8d
=
4c
8c
8c
=
4c
8c
8e
=
4g
8g
8g
=
8cc
8b
8a
8g
=
4b
8a
8a
=
8cc
8a
8f
8d
=
4e
8d
8c
=
4.B-
8c
=
4d
8e
8d
=
4c
4c
==
*-
